outputs/icons/communication/chat_message_unread_round.svg

<svg xmlns="http://www.w3.org/2000/svg" width="1200" height="1250" fill="none"><path fill="#000" d="M920 200H280c-44 0-80 36-80 80v720l160-160h560c44 0 80-36 80-80V280c0-44-36-80-80-80m0 560H360l-80 80V280h640z"/><path fill="#D70015" d="M1100 250c0 82.843-67.155 150-150 150s-150-67.157-150-150 67.155-150 150-150 150 67.157 150 150"/><path stroke="#fff" stroke-width="100" d="M950 50c110.455 0 200 89.543 200 200 0 74.01-40.245 138.558-100 173.144V760.01c-.005 71.605-58.38 129.97-129.98 129.98H380.713L150 1120.705V279.981c.011-71.6 58.381-129.97 129.981-129.981h496.824C811.39 90.232 875.98 50 950 50ZM329.981 719.335l9.326-9.325H870.02V433.301c-46.135-20.158-83.165-57.186-103.32-103.32H329.981z"/></svg>

<svg width="1200" height="1250" viewBox="0 0 1200 1250" fill="none" xmlns="http://www.w3.org/2000/svg"><path d="M920 200H280C236 200 200 236 200 280V1000L360 840H920C964 840 1000 804 1000 760V280C1000 236 964 200 920 200ZM920 760H360L280 840V280H920V760Z" fill="black"/><path d="M1100 250C1100 332.843 1032.845 400 950 400C867.155 400 800 332.843 800 250C800 167.157 867.155 100 950 100C1032.845 100 1100 167.157 1100 250Z" fill="#D70015"/><path d="M950 50C1060.455 50 1150 139.543 1150 250C1150 324.01 1109.755 388.558 1050 423.144V760.01C1049.995 831.615 991.62 889.98 920.02 889.99H380.713L150 1120.705V279.981C150.011 208.381 208.381 150.011 279.981 150H776.805C811.39 90.232 875.98 50 950 50ZM329.981 719.335L339.307 710.01H870.02V433.301C823.885 413.143 786.855 376.115 766.7 329.981H329.981V719.335Z" stroke="white" stroke-width="100"/></svg>
